X: 786
T: Gel Ey Denizin Nazlı Kızı
C: Aleko Bacanos
O: Turkey
F: http://compmusic.upf.edu/node/140
N: acemasiran--sarki--yuruksemai--gel_ey_denizin--aleko_bacanos
N: makam= acemasiran
N: form= sarki
N: usul= yuruksemai = 6/8
M: 6/8
L: 1/16
K: C _B   
Q: 1/4=144
%%MIDI tuningsystem comma53
F2A2 c2f2 g2^g2  | a8-a2z2  | F2A2 c2e2 f2^f2  | \
w:  ARANAĞME  |   |   | 
g8-g2z2  | gaga f2fg fge2  | 
w:   |   | 
d2e2 eded c4  | A2B2 c2A2 A2G2  | F2A2 c2F2 z4  | \
w:   |   |   | 
c2f2 g2a2 g2f2  | 
w:  Gel_ ey  de ni *  zin   | 
e4 d2ed c3A  | cBA3GAG .F4  | b4 a2g2 ^3/4f2g2  | \
w:  naz lı  kı  |  zı   |  nûş_ i  şa râb   | 
b8-b2z2  | 
w:  et   | 
g4 g2g2 a4  | f8-f2z2  | efgf e2de fed2  | \
w:  nûş_ i  şa râb   |  et    |  SAZ  | 
ABcB AGF6  | 
w:  SAZ  | 
c2f2 g2a2 g2f2  | e4 d2ed c3A  | cBA3GAG .F4  | \
w:  Gel_ ey  de ni *  zin   |  naz lı  kı  |  zı   | 
b4 a2g2 ^3/4f2g2  | 
w:  nûş_ i  şa râb   | 
b8-b2z2  | g4 g2g2 a4  | f8-f2z2  | efgf e2de fed2  | \
w:  et   |  nûş_ i  şa râb   |  et    |  SAZ  | 
ABcB AGFG/A/ B/c/d/e/f2  | 
w:  SAZ  | 
{g}f2e2 f2g4fe  | e4-edd4z2  | e4 edd4z2  | \
w:  *  Çık  *  *  sa hi  |  le  *  gel   |  sî ne *  de   | 
E4 EDD4z2  | 
w:  SAZ  | 
c2=B2 c2f3AA2  | c4-cBB4z2  | G2^3/4F2 G2c4BA  | \
w:  bir  â *  le *  mi   |  âb  *  et   |  bir  â *  le mi   | 
A4 GFF4z2  | 
w:  âb  *  *  et    | 
efgf e2de fed2  | ABcB AGFG/A/ B/c/d/e/f2  | 
w:  SAZ  |   | 
{g}f2e2 f2g4fe  | e4-edd4z2  | e4 edd4z2  | \
w:  *  Çık  *  *  sa hi  |  le  *  gel   |  sî ne *  de   | 
E4 EDD4z2  | 
w:  SAZ  | 
c2=B2 c2f3AA2  | c4-cBB4z2  | G2^3/4F2 G2c4BA  | \
w:  bir  â *  le *  mi   |  âb  *  et   |  bir  â *  le mi   | 
A4 GFF4z2  | 
w:  âb  *  *  et    | 
a6a6  | A6A6  | a2b2 a2g2 f2g2  | a8-a2z2  | \
w:  SAZ  |   |  SAZ  |   | 
a4 a2a4a2  | a2b2 _1/4b2c'4d'2  | 
w:  Mes tâ ne  ba  |  kış *  *  lar la   | 
{_1/4b}_b4 c'2{a}a4g2  | g2f2 g2a2 g2f2  | \
w:  *  be ni  *  mest_ ü   |  ha râb  *  *  et   | 
e2d2 c2c4A2  | B2B3AA4z2  | a4 a2a4a2  | 
w:  *  *  *  mest_ ü   |  ha râb  *  et    |  Mes tâ ne  ba  | 
a2b2 _1/4b2c'4d'2  | {_1/4b}_b4 c'2{a}a4g2  | \
w:  kış *  *  lar la   |  *  be ni  *  mest_ ü   | 
g2f2 g2a4z2  | g4 g2g2 a4  | f8-f2z2  | 
w:  ha râb  *  et   |  mest_ ü  ha râb   |  et    | 
efgf e2de fed2  | ABcB AGFG/A/ B/c/d/e/f2  | 
w:  SAZ  |   | 
{g}f2e2 f2g4fe  | e4-edd4z2  | e4 edd4z2  | \
w:  *  Çık  *  *  sa hi  |  le  *  gel   |  sî ne *  de   | 
E4 EDD4z2  | 
w:  SAZ  | 
c2=B2 c2f3AA2  | c4-cBB4z2  | G2^3/4F2 G2c4BA  | \
w:  bir  â *  le *  mi   |  âb  *  et   |  bir  â *  le mi   | 
A4 GFF4z2  | 
w:  âb  *  *  et    | 
|


